dist/icons/socials/odnoklassniki.svg

<svg width="30" height="30" viewBox="0 0 30 30" fill="none" xmlns="http://www.w3.org/2000/svg">
<path d="M12.793 10.377C12.793 9.08203 13.8418 8.0332 15.125 8.0332C16.4082 8.0332 17.457 9.08203 17.457 10.377C17.457 11.666 16.4082 12.709 15.125 12.709C13.8418 12.709 12.793 11.6602 12.793 10.377ZM28.25 4.6875V25.3125C28.25 26.8652 26.9902 28.125 25.4375 28.125H4.8125C3.25977 28.125 2 26.8652 2 25.3125V4.6875C2 3.13477 3.25977 1.875 4.8125 1.875H25.4375C26.9902 1.875 28.25 3.13477 28.25 4.6875ZM10.373 10.377C10.373 12.9902 12.5059 15.1172 15.125 15.1172C17.7441 15.1172 19.877 12.9961 19.877 10.377C19.877 7.75195 17.7441 5.625 15.125 5.625C12.5059 5.625 10.373 7.74609 10.373 10.377ZM20.5977 15.6914C20.3281 15.1582 19.584 14.707 18.5996 15.4805C18.5996 15.4805 17.2695 16.5352 15.125 16.5352C12.9805 16.5352 11.6504 15.4805 11.6504 15.4805C10.666 14.707 9.92188 15.1582 9.65234 15.6914C9.18945 16.6348 9.7168 17.0801 10.9062 17.8594C11.9199 18.5098 13.3203 18.75 14.2227 18.8438L13.4668 19.5996C12.4004 20.6543 11.3867 21.6797 10.6719 22.3945C9.64062 23.4258 11.2988 25.0781 12.3359 24.0703L15.1309 21.2637C16.1973 22.3301 17.2227 23.3555 17.9258 24.0703C18.957 25.0781 20.6211 23.4434 19.6016 22.3945L16.8066 19.5996L16.0449 18.8438C16.9531 18.75 18.3359 18.498 19.3379 17.8594C20.5332 17.0801 21.0547 16.6289 20.5977 15.6914Z" fill="black" fill-opacity="0.5"/>
</svg>

<svg width="30" height="30" fill="none" xmlns="http://www.w3.org/2000/svg"><path d="M12.793 10.377a2.34 2.34 0 012.332-2.344 2.34 2.34 0 012.332 2.344 2.334 2.334 0 01-2.332 2.332 2.338 2.338 0 01-2.332-2.332zm15.457-5.69v20.625a2.813 2.813 0 01-2.813 2.813H4.813A2.813 2.813 0 012 25.312V4.688a2.813 2.813 0 012.813-2.812h20.625a2.813 2.813 0 012.812 2.813zm-17.877 5.69c0 2.613 2.133 4.74 4.752 4.74 2.62 0 4.752-2.12 4.752-4.74a4.751 4.751 0 10-9.504 0zm10.225 5.314c-.27-.533-1.014-.984-1.998-.21 0 0-1.33 1.054-3.475 1.054S11.65 15.48 11.65 15.48c-.984-.773-1.728-.322-1.998.211-.463.944.065 1.39 1.254 2.168 1.014.65 2.414.891 3.317.985l-.756.756c-1.067 1.054-2.08 2.08-2.795 2.794-1.031 1.032.627 2.684 1.664 1.676l2.795-2.806c1.066 1.066 2.092 2.091 2.795 2.806 1.031 1.008 2.695-.627 1.676-1.675L16.807 19.6l-.762-.756c.908-.094 2.29-.346 3.293-.985 1.195-.779 1.717-1.23 1.26-2.168z" fill="#000" fill-opacity=".5"/></svg>
